img/copy.svg

<svg fill="none" height="17" viewBox="0 0 16 17" width="16" xmlns="http://www.w3.org/2000/svg"><g fill="#008699"><path d="m9.16649 6.16699h-5.83373c-.64346 0-1.16674.52329-1.16674 1.16675v5.83376c0 .6434.52328 1.1667 1.16674 1.1667h5.83373c.64346 0 1.16671-.5233 1.16671-1.1667v-5.83376c0-.64346-.52325-1.16675-1.16671-1.16675z"/><path d="m12.6684 2.66699h-5.83369c-.30944 0-.6062.12293-.82501.34173-.21881.21881-.34173.51558-.34173.82502v1.16674h4.66693c.3095 0 .6063.12293.8251.34173.2188.21881.3417.51558.3417.82502v4.66697h1.1667c.3095 0 .6062-.1229.8251-.3417.2188-.2188.3417-.5156.3417-.82504v-5.83372c0-.30944-.1229-.60621-.3417-.82502-.2189-.2188-.5156-.34173-.8251-.34173z"/></g></svg>

<svg width="16" height="17" viewBox="0 0 16 17" fill="none" xmlns="http://www.w3.org/2000/svg">
<path d="M9.16649 6.16699H3.33276C2.6893 6.16699 2.16602 6.69028 2.16602 7.33374V13.1675C2.16602 13.8109 2.6893 14.3342 3.33276 14.3342H9.16649C9.80995 14.3342 10.3332 13.8109 10.3332 13.1675V7.33374C10.3332 6.69028 9.80995 6.16699 9.16649 6.16699Z" fill="#008699"/>
<path d="M12.6684 2.66699H6.83471C6.52527 2.66699 6.22851 2.78992 6.0097 3.00872C5.79089 3.22753 5.66797 3.5243 5.66797 3.83374V5.00048H10.3349C10.6444 5.00048 10.9412 5.12341 11.16 5.34221C11.3788 5.56102 11.5017 5.85779 11.5017 6.16723V10.8342H12.6684C12.9779 10.8342 13.2746 10.7113 13.4935 10.4925C13.7123 10.2737 13.8352 9.9769 13.8352 9.66746V3.83374C13.8352 3.5243 13.7123 3.22753 13.4935 3.00872C13.2746 2.78992 12.9779 2.66699 12.6684 2.66699Z" fill="#008699"/>
</svg>
